X: 19
T:My Darling Asleep
M:6/8
L:1/8
R:Double Jig
Z:
K:D
ag[|:fdd cAA|BAG A2G|FAA def|gfg eag|!
fdd cAA|BAG A2G|FAA def|1gec dag:|2gec d2A|!
|:FAA BAG|FAA BAG|FAA def|gfg eag|!
fdd cAA|BAG A2G|FAA def|1gec d2A:|2gec dag|]!
